SF_Symbols/arrow.up.left.and.down.right.and.arrow.up.right.and.down.left.svg

<?xml version="1.0" encoding="UTF-8"?>
<svg xmlns="http://www.w3.org/2000/svg" xmlns:xlink="http://www.w3.org/1999/xlink" width="24" height="24" viewBox="0 0 24 24" version="1.1">
<g id="surface1">
<path style=" stroke:none;fill-rule:nonzero;fill:rgb(100%,100%,100%);fill-opacity:1;" d="M 0.796875 7.664062 C 0.796875 8.007812 0.898438 8.265625 1.101562 8.4375 C 1.304688 8.601562 1.542969 8.675781 1.816406 8.660156 C 2.089844 8.636719 2.335938 8.511719 2.554688 8.285156 L 7.746094 3.09375 C 7.972656 2.867188 8.09375 2.617188 8.109375 2.34375 C 8.132812 2.070312 8.058594 1.835938 7.886719 1.640625 C 7.722656 1.4375 7.46875 1.335938 7.125 1.335938 L 1.863281 1.335938 C 1.535156 1.335938 1.273438 1.4375 1.078125 1.640625 C 0.890625 1.835938 0.796875 2.09375 0.796875 2.414062 Z M 3.820312 5.835938 L 18.667969 20.695312 L 20.15625 19.230469 L 5.308594 4.359375 Z M 23.191406 17.402344 C 23.191406 17.058594 23.089844 16.804688 22.886719 16.640625 C 22.683594 16.46875 22.445312 16.394531 22.171875 16.417969 C 21.898438 16.433594 21.648438 16.550781 21.421875 16.769531 L 16.230469 21.960938 C 16.011719 22.1875 15.890625 22.4375 15.867188 22.710938 C 15.851562 22.984375 15.925781 23.222656 16.089844 23.425781 C 16.261719 23.628906 16.519531 23.730469 16.863281 23.730469 L 22.125 23.730469 C 22.453125 23.730469 22.710938 23.628906 22.898438 23.425781 C 23.09375 23.222656 23.191406 22.964844 23.191406 22.652344 Z M 23.191406 7.664062 L 23.191406 2.414062 C 23.191406 2.09375 23.09375 1.835938 22.898438 1.640625 C 22.710938 1.4375 22.453125 1.335938 22.125 1.335938 L 16.863281 1.335938 C 16.519531 1.335938 16.261719 1.4375 16.089844 1.640625 C 15.925781 1.835938 15.851562 2.070312 15.867188 2.34375 C 15.890625 2.617188 16.011719 2.867188 16.230469 3.09375 L 21.421875 8.285156 C 21.648438 8.511719 21.898438 8.636719 22.171875 8.660156 C 22.445312 8.675781 22.683594 8.601562 22.886719 8.4375 C 23.089844 8.265625 23.191406 8.007812 23.191406 7.664062 Z M 5.308594 20.695312 L 20.167969 5.835938 L 18.679688 4.359375 L 3.820312 19.21875 Z M 0.796875 17.402344 L 0.796875 22.652344 C 0.796875 22.964844 0.890625 23.222656 1.078125 23.425781 C 1.273438 23.628906 1.535156 23.730469 1.863281 23.730469 L 7.125 23.730469 C 7.46875 23.730469 7.722656 23.628906 7.886719 23.425781 C 8.058594 23.222656 8.132812 22.984375 8.109375 22.710938 C 8.09375 22.4375 7.972656 22.1875 7.746094 21.960938 L 2.554688 16.769531 C 2.335938 16.550781 2.089844 16.433594 1.816406 16.417969 C 1.542969 16.394531 1.304688 16.46875 1.101562 16.640625 C 0.898438 16.804688 0.796875 17.058594 0.796875 17.402344 Z M 0.796875 17.402344 "/>
</g>
</svg>

<svg xmlns="http://www.w3.org/2000/svg" width="24" height="24"><path style="stroke:none;fill-rule:nonzero;fill:#fff;fill-opacity:1" d="M.797 7.664c0 .344.101.602.305.774.203.164.441.238.714.222.274-.023.52-.148.739-.375l5.191-5.191c.227-.227.348-.477.363-.75a.908.908 0 0 0-.222-.703c-.164-.204-.418-.305-.762-.305H1.863c-.328 0-.59.101-.785.305-.187.195-.281.453-.281.773ZM3.82 5.836l14.848 14.86 1.488-1.466L5.31 4.36Zm19.371 11.566c0-.343-.101-.597-.304-.761a.95.95 0 0 0-.715-.223c-.274.016-.524.133-.75.352l-5.192 5.19c-.218.227-.34.477-.363.75-.015.274.059.513.223.716.172.203.43.304.773.304h5.262c.328 0 .586-.101.773-.304.196-.207.301-.488.293-.774Zm0-9.738v-5.25c0-.32-.097-.578-.293-.773-.187-.204-.445-.305-.773-.305h-5.262c-.343 0-.601.101-.773.305a.96.96 0 0 0-.223.703c.024.273.145.523.363.75l5.192 5.191c.226.227.476.352.75.375.273.016.512-.058.715-.223.203-.171.304-.43.304-.773ZM5.31 20.695l14.859-14.86L18.68 4.36 3.82 19.22ZM.797 17.402v5.25c0 .313.094.57.281.774.195.203.457.304.785.304h5.262c.344 0 .598-.101.762-.304a.934.934 0 0 0 .222-.715c-.015-.273-.136-.523-.363-.75L2.555 16.77a1.111 1.111 0 0 0-.739-.352.955.955 0 0 0-.714.223c-.204.164-.305.418-.305.761Zm0 0"/></svg>
